src/assets/svg/iconComment.svg

<svg width="27" height="27" viewBox="0 0 27 27" fill="none" xmlns="http://www.w3.org/2000/svg">
<mask id="path-1-inside-1_2417_590" fill="white">
<path fill-rule="evenodd" clip-rule="evenodd" d="M23.7485 19.3536C24.8 17.5924 25.4041 15.5333 25.4041 13.3331C25.4041 6.83752 20.1384 1.57178 13.6428 1.57178C7.14715 1.57178 1.88141 6.83752 1.88141 13.3331C1.88141 19.8288 7.14715 25.0945 13.6428 25.0945C15.8475 25.0945 17.9105 24.4879 19.674 23.4324L25.2412 24.9241L23.7485 19.3536Z"/>
</mask>
<path d="M23.7485 19.3536L22.0961 18.367C21.8294 18.8137 21.7549 19.3492 21.8895 19.8517L23.7485 19.3536ZM19.674 23.4324L20.1722 21.5734C19.669 21.4386 19.1327 21.5135 18.6857 21.781L19.674 23.4324ZM25.2412 24.9241L24.743 26.7832C25.4072 26.9611 26.1158 26.7712 26.602 26.285C27.0882 25.7988 27.2781 25.0902 27.1002 24.426L25.2412 24.9241ZM23.4795 13.3331C23.4795 15.1764 22.9744 16.8958 22.0961 18.367L25.401 20.3402C26.6256 18.289 27.3287 15.8903 27.3287 13.3331H23.4795ZM13.6428 3.49636C19.0755 3.49636 23.4795 7.90044 23.4795 13.3331H27.3287C27.3287 5.7746 21.2013 -0.352809 13.6428 -0.352809V3.49636ZM3.806 13.3331C3.806 7.90044 8.21007 3.49636 13.6428 3.49636V-0.352809C6.08423 -0.352809 -0.043178 5.7746 -0.043178 13.3331H3.806ZM13.6428 23.1699C8.21007 23.1699 3.806 18.7658 3.806 13.3331H-0.043178C-0.043178 20.8917 6.08423 27.0191 13.6428 27.0191V23.1699ZM18.6857 21.781C17.2125 22.6627 15.4898 23.1699 13.6428 23.1699V27.0191C16.2051 27.0191 18.6085 26.3131 20.6624 25.0839L18.6857 21.781ZM19.1759 25.2914L24.743 26.7832L25.7393 23.0651L20.1722 21.5734L19.1759 25.2914ZM27.1002 24.426L25.6075 18.8555L21.8895 19.8517L23.3822 25.4223L27.1002 24.426Z" fill="white" mask="url(#path-1-inside-1_2417_590)"/>
</svg>

<svg width="27" height="27" fill="none" xmlns="http://www.w3.org/2000/svg">
  <mask id="a" fill="#fff">
    <path fill-rule="evenodd" clip-rule="evenodd" d="M23.748 19.354a11.707 11.707 0 0 0 1.656-6.02c0-6.496-5.266-11.762-11.761-11.762-6.496 0-11.762 5.266-11.762 11.761 0 6.496 5.266 11.761 11.762 11.761 2.204 0 4.267-.606 6.031-1.662l5.567 1.492-1.492-5.57Z"/>
  </mask>
  <path d="m23.748 19.354-1.652-.987a1.925 1.925 0 0 0-.206 1.485l1.858-.498Zm-4.074 4.078.498-1.859a1.925 1.925 0 0 0-1.486.208l.988 1.651Zm5.567 1.492-.498 1.86a1.925 1.925 0 0 0 2.357-2.358l-1.859.498Zm-1.761-11.59a9.782 9.782 0 0 1-1.384 5.033l3.305 1.973a13.631 13.631 0 0 0 1.928-7.007h-3.85Zm-9.837-9.838c5.433 0 9.837 4.404 9.837 9.837h3.849c0-7.558-6.128-13.686-13.686-13.686v3.85Zm-9.837 9.837c0-5.433 4.404-9.837 9.837-9.837V-.353C6.084-.353-.043 5.775-.043 13.333h3.849Zm9.837 9.837c-5.433 0-9.837-4.404-9.837-9.837h-3.85c0 7.559 6.128 13.686 13.687 13.686v-3.85Zm5.043-1.389a9.782 9.782 0 0 1-5.043 1.389v3.85c2.562 0 4.965-.707 7.02-1.936l-1.977-3.303Zm.49 3.51 5.567 1.492.996-3.718-5.567-1.492-.996 3.718Zm7.924-.865-1.492-5.57-3.718.996 1.492 5.57 3.718-.996Z" fill="#fff" mask="url(#a)"/>
</svg>
